X:6018
T:Gan Ainm
R:Reel
C:
S:
H:
N:
D:'Sessions From The Hearth' & 'Laoise Kelly: Just Harp'
Z:Adrian Scahill
M:4/4
L:1/8
K:G
G2 (3GGG Bcdg|efge dBGB|c3A BAGB|(3AAA GA FAdF|\
GA (3BAG BcdB|ABB2 cdec|dG (3Bcd gdBd|1 cddc BdAd:|2 cBAc BGBd||\
deed edce|d2ge dcBd|edce dcBd|cBAG FADF|\
GA (3BAG gGfG|Ge (3fed edBe|dG (3Bcd gdBd|1 cBAc BGBd:|2 cddc BdAd||


